X:138
T:Reel 138
M:4/4
K:Dmix
L:1/8
FE|DA,A,B, C2DE|FGAE FGAB|cBAG F2FD|EFGE F2EC|DA,DF E2AG|EFGE F2ED|CDEF FGAG|FGEC D2|FG|Addc d2dc|AGAB cAGE|CDEF GECE|GFGF EGFG|Addc d2AG|AGAB c2AB|cdBc BAGE|CDEC D2|
